X:538
T: BUKO VON HALBERSTADT
N: E1817
O: Europa, Mitteleuropa, Deutschland
R: Kinder - Lied, Sage
M: 2/4
L: 1/16
K: F
 | c4A2G2 | F2F2C4 |
c2c2A2G2 | F2F2C2z2 |
F2F2G2F2 | B4G2
c2 | BAGFG2C2 | F4F2z2

@@@ Tune index: 5222
